!!!COM: Music21
!!!OTL: barndance_Hamefarin
!!!OMV: barndance_Hamefarin
**kern
*clefG2
*k[b-]
*F:
*M4/4
=1
8cL
8B-J
=||
8AL
8cJ
8fL
8aJ
8ccL
8bnJ
8ccL
8b-XJ
=
4cc
4a
8aL
8fJ
8cL
8AJ
=
4B-
4g
8gL
8f#XJ
8gL
8b-J
=
4a
4cc
4cc
8cL
8B-J
=
8AL
8cJ
8fL
8aJ
8ccL
8bnJ
8ccL
8b-XJ
!!linebreak:original
=
4cc
4a
8aL
8fJ
8cL
8AJ
=
4B-
4g
4e
4c
=
4f
4f
4f
8cL
8B-J
=||
8AL
8cJ
8fL
8aJ
8ccL
8bnJ
8ccL
8b-XJ
=
4cc
4a
8aL
8fJ
8cL
8AJ
=
4B-
4g
8gL
8f#XJ
8gL
8b-J
!!linebreak:original
=
4a
4cc
4cc
8cL
8B-J
=
8AL
8cJ
8fL
8aJ
8ccL
8bnJ
8ccL
8b-XJ
=
4cc
4a
8aL
8fJ
8cL
8AJ
=
4B-
4g
4e
4c
=
4f
4f
4f
8ccL
8b-J
=||
4a
4f
4f
4e
=
4d
4b-
4b-
8ggL
8ffJ
!!linebreak:original
=
4ee
4cc
4cc
4bb-
=
4bb-
4aa
4aa
8ccL
8b-J
=
4a
4f
4f
4e
=
4d
4b-
4b-
8ggL
8ffJ
=
4ee
4cc
4cc
4e
=
2f
4f
8ccL
8b-J
=||
4a
4f
4f
4e
=
4d
4b-
4b-
8ggL
8ffJ
!!linebreak:original
=
4ee
4cc
4cc
4bb-
=
4bb-
4aa
4aa
8ccL
8b-J
=
4a
4f
4f
4e
=
4d
4b-
4b-
8ggL
8ffJ
=
4ee
4cc
4cc
4e
=
2f
4f
4ryy
=||
*-
